!!! OTL: Berkowitz558
!!! Chapter: 1
!!! Section: V
!!! Page: 141
!!! Mode: 
!!! Encoder: DJB
**kern
*staff1
*I"Piano
=1-
*clefG2
*k[]
*C:
*M3/4
4B-/
8e-/L
8a-/J
4g-/
=2
2g/
4d/
=3
4e/
2B/
=4
4f/
8e-/L
8a-/J
4b-\
=5
2b\
4a/
=6
4g#/
4cc#\
4r
=7
4dd\
8cc/L
8g/J
4a/
=8
2e/
4r
=9
4f#/
4fn/
8b-/L
8a-/J
=10
2e-/
4r
=11
4d/
8g/L
8f/J
4c/
=12
!!linebreak:original
8f/L
8e-/J
4B-/
4c/
=13
2G/
4r
==
*-
